X: 27900
T: Mountain Lark, The
R: reel
M: 4/4
K: Edorian
|F~E3 FEDE|F~E3 FABA|F~E3 FEDB,|~D3E FABA|
F~E3 FEDE|F~E3 FABA|F~E3 FEDB,|~D3E FABA||
B~e3 fded|Beec dBAd|B~e3 fded|~B3c dBAd|
B~e3 f2ed|fgfe ~d3e|fdec dcBA|~B3c dcBA:|FEED E4||

